X:1
T: Galloping O'Hogan
C:
R:Jig
Q:180
K:G
M:6/8
L:1/16
|:GA|B2G2G2 A2F2F2|D2G2G2 G4A2|B2G2B2 c2B2c2|A2D2E2 F2G2A2|
B2A2B2 c2B2c2|d2e2f2 g2a2g2|f2d2c2 A2G2F2|A2G2G2 G4:|
|:Bd|g2a2f2 g2a2f2|g2G2G2 G2B2d2|=f2g2f2 f2g2e2|=f2=F2F2 F2G2A2|
_B2A2B2 c2=B2c2|d2e2f2 g2a2g2|f2d2c2 A2G2F2|A2G2G2 G4:|

